!!!!SEGMENT: pl-kk--kk-i-7--027_biandra-giovanni-pietro--alleluia-ave-maria.krn
!!!cenid: 16xx:817
!!!COM: Biandrà, Giovanni Pietro
!!!COM-rismid: pe30011487
!!!CDT: <1627->1627
!!!CNT: Italian
!!!OTL: Alleluia Ave Maria
!!!PDT:
!!!AGN: Sacred
!!!SMS-siglum: PL-Kk
!!!SMS-shelfmark: Kk.I.7
!!!SMS-shelfwork: 027 W
!!!SMS-variant:
!!!SMS-altvar:
!!!NIFC-rismid: 300258104
!!!system-decoration: [(s1,s2,s3,s4)]
!!!key:
**kern	**text	**kern	**text	**kern	**text	**kern	**text
*part4	*part4	*part3	*part3	*part2	*part2	*part1	*part1
*staff4	*staff4	*staff3	*staff3	*staff2	*staff2	*staff1	*staff1
*Iempty	*	*Itenor	*	*Ialto	*	*Ivox	*
*I"[Baſso]	*	*I"[Tenore]	*	*I"[Alto]	*	*I"[Canto]	*
*I'B	*	*I'T	*	*I'A	*	*I'S	*
*clefF4	*	*clefC4	*	*clefC3	*	*clefC2	*
*k[]	*	*k[]	*	*k[]	*	*k[]	*
*C:	*	*C:	*	*C:	*	*C:	*
*M2/1	*	*M2/1	*	*M2/1	*	*M2/1	*
*met(C|)	*	*met(C|)	*	*met(C|)	*	*met(C|)	*
=1	=1	=1	=1	=1	=1	=1	=1
*2\right	*	*	*	*2\right	*	*2\right	*
!LO:TX:t=P:problem=all\right&colon; global	!	!	!	!LO:TX:t=P:problem=all\right&colon; global	!	!LO:TX:t=P:problem=all\right&colon; global	!
!	!	!	!	!LO:TX:t=P:problem=w źródle inicjał A na początku pięciolinii	!	!LO:TX:t=P:problem=w źródle inicjał A na początku pięciolinii	!
!LO:TX:t=P:problem=w źródle inicjał A na początku pięciolinii	!	!LO:TX:t=P:problem=w źródle inicjał A na początku pięciolinii	!	!	!	!	!
!	!	!	!	!LO:TX:t=P:problem=kreska pseudotaktowa	!	!	!
!	!	!LO:TX:t=P:problem=podłożenie tekstu niejednoznaczne	!	!	!	!	!
2r	.	1G	AL-	1r	.	2r	.
!LO:TX:t=P:problem=podłożenie tekstu niejednoznaczne	!	!	!	!	!	!LO:TX:t=P:problem=podłożenie tekstu niejednoznaczne	!
!LO:TX:t=P:problem=kreska pseudotaktowa	!	!	!	!	!	!LO:TX:t=P:problem=kreska pseudotaktowa	!
2GG/	Al-	.	.	.	.	2B/	Al-
*	*	*lig	*	*	*	*	*
!	!	!	!	!LO:TX:t=P:problem=podłożenie tekstu niejednoznaczne	!	!	!
2AA/	.	1E	-le-	1c	Al-	2c/	-le-
2C/	-le-	.	.	.	.	2e/	.
=2-	=2-	=2-	=2-	=2-	=2-	=2-	=2-
!LO:TX:t=P:problem=kreska pseudotaktowa	!	!	!	!	!	!LO:TX:t=P:problem=kreska pseudotaktowa	!
1D	.	1F	.	2A/	.	1d	-lu-
!	!	!	!	!LO:TX:t=P:problem=kreska pseudotaktowa	!	!	!
.	.	.	.	2B/	-le-	.	.
*	*	*Xlig	*	*	*	*	*
1C	.	1G	.	1.c	-lu-	1e	-ia
=3-	=3-	=3-	=3-	=3-	=3-	=3-	=3-
*	*	*lig	*	*	*	*	*
*	*	*	*	*	*	*	*ij
2F\	.	1A	.	.	.	2f\	Al-
!LO:TX:t=P:problem=kreska pseudotaktowa	!	!	!	!LO:TX:t=P:problem=kreska pseudotaktowa	!	!LO:TX:t=P:problem=kreska pseudotaktowa	!
2A\	-lu-	.	.	2c/	-ia	2e/	.
*	*	*	*	*	*ij	*	*
!LO:TX:t=P:problem=kreska pseudotaktowa	!	!	!	!	!	!	!
1G	-ia	1B	.	2d\	Al-	2.g\	.
!	!	!	!	!LO:TX:t=P:problem=kreska pseudotaktowa	!	!	!
.	.	.	.	2d\	-le-	.	.
.	.	.	.	.	.	4f\	.
*	*	*Xlig	*	*	*	*	*
=4	=4	=4-	=4-	=4	=4	=4-	=4-
*	*	*lig	*	*	*	*	*
2r	.	1c	.	2c/	-lu-	1e	.
*	*ij	*	*	*	*	*	*
!LO:TX:t=P:problem=kreska pseudotaktowa	!	!	!	!	!	!	!
2C/	Al-	.	.	4G/	.	.	.
!	!	!	!	!LO:TX:t=P:problem=kreska pseudotaktowa	!	!	!
.	.	.	.	4A/	.	.	.
!	!	!	!	!	!	!LO:TX:t=P:problem=kreska pseudotaktowa	!
4GG/	-le-	1B	.	4B/	.	0d	-le-
4AA/	.	.	.	4c/	.	.	.
4BB/	.	.	.	4d\	.	.	.
!	!	!	!	!LO:TX:t=P:problem=kreska pseudotaktowa	!	!	!
4C/	.	.	.	4e\	.	.	.
*	*	*Xlig	*	*	*	*	*
=5-	=5-	=5-	=5-	=5	=5	=5-	=5-
*	*	*lig	*	*	*	*	*
1D	.	1A	.	2f\	-ia	.	.
*	*	*	*	*	*Xij	*	*
*	*	*	*	*	*ij	*	*
.	.	.	.	1d	Al-	.	.
1E	-lu-	1G	.	.	.	2g\	-lu-
!	!	!	!	!LO:TX:t=P:problem=kreska pseudotaktowa	!	!	!
.	.	.	.	2c/	-le-	2e/	.
*	*	*Xlig	*	*	*	*	*
=6-	=6-	=6-	=6-	=6	=6	=6-	=6-
!LO:TX:t=P:problem=kreska pseudotaktowa	!	!	!	!	!	!LO:TX:t=P:problem=kreska pseudotaktowa	!
1D	-ia	1F	.	2d\	.	1f	-ia
!	!	!	!	!LO:TX:t=P:problem=kreska pseudotaktowa	!	!	!
.	.	.	.	2d\	-lu-	.	.
*	*Xij	*	*	*	*	*	*Xij
*	*	*	*	*	*	*	*ij
2r	.	1A	-lu-	2e\	.	2.c/	Al-
*	*ij	*	*	*	*	*	*
!LO:TX:t=P:problem=kreska pseudotaktowa	!	!	!	!	!	!	!
2AA/	Al-	.	.	2c/	.	.	.
.	.	.	.	.	.	4c/	-le-
=7	=7	=7-	=7-	=7-	=7-	=7-	=7-
!	!	!LO:TX:t=P:problem=kreska pseudotaktowa	!	!LO:TX:t=P:problem=kreska pseudotaktowa	!	!	!
2BB/	-le-	0G	-ia	1B	.	2d/	-lu-
2GG/	-lu-	.	.	.	.	1g	.
!LO:TX:t=P:problem=kreska pseudotaktowa	!	!	!	!	!	!	!
1GG	-ia	.	.	1c	-ia	.	.
!	!	!	!	!	!	!LO:TX:t=P:problem=kreska pseudotaktowa	!
.	.	.	.	.	.	2e/	.
*	*Xij	*	*	*	*Xij	*	*
=8	=8	=8	=8	=8-	=8-	=8	=8
*	*	*lig	*	*	*	*	*
*	*ij	*	*	*	*	*	*
2.FF/	Al-	1A	Al-	2A/	Al-	2f\	-ia
*	*	*	*	*	*	*	*Xij
.	.	.	.	1d	.	2a\	Al-
4GG/	-le-	.	.	.	.	.	.
1AA	-lu-	1E	.	.	.	1.a	-le-
!	!	!	!	!LO:TX:t=P:problem=kreska pseudotaktowa	!	!	!
!	!	!	!	!LO:TX:t=P:♯below:problem	!	!	!
.	.	.	.	2c#Xi\	-le-	.	.
*	*	*Xlig	*	*	*	*	*
=9-	=9-	=9-	=9-	=9	=9	=9-	=9-
!LO:TX:t=P:problem=kreska pseudotaktowa	!	!	!	!	!	!	!
1D	-ia	1F	.	2.d\	.	.	.
!	!	!	!	!	!	!LO:TX:t=P:problem=kreska pseudotaktowa	!
.	.	.	.	.	.	2a\	-lu-
.	.	.	.	4c/	.	.	.
*	*Xij	*	*	*	*	*	*
*	*	*lig	*	*	*	*	*
0r	.	1G	.	4B/	.	1g	-ia
.	.	.	.	4G/	.	.	.
.	.	.	.	1g\	-lu-	.	.
=10-	=10-	=10-	=10-	=10-	=10-	=10-	=10-
*	*	*	*	*	*	*	*ij
.	.	1D	.	.	.	1a	Al-
!	!	!	!	!LO:TX:t=P:problem=♯above	!	!	!
.	.	.	.	2f#Xi\	.	.	.
*	*	*Xlig	*	*	*	*	*
*	*	*	*	*custos:c	*	*	*
!	!	!	!	!LO:TX:t=P:problem=kreska pseudotaktowa	!	!	!
2r	.	1G	.	1g	-ia	2g\	-le-
!	!	!	!	!	!	!LO:TX:t=P:problem=kreska pseudotaktowa	!
2G\	Al-	.	.	.	.	2d/	.
!	!	!	!	!LO:PB:g=original	!	!	!
=11-	=11-	=11-	=11-	=11	=11	=11	=11
*	*	*lig	*	*	*	*	*
2D/	-le-	1F	.	2r	.	2f\	.
*custos:C	*	*	*	*	*	*custos:g	*
!LO:TX:t=P:problem=kreska pseudotaktowa	!	!	!	!	!	!LO:TX:t=P:problem=kreska pseudotaktowa	!
2F\	-lu-	.	.	1c	Al-	2a\	.
!LO:LB:g=original	!	!	!	!	!	!LO:LB:g=original	!
!LO:TX:t=P:problem=kreska pseudotaktowa	!	!	!	!	!	!	!
1C	-ia	1E	.	.	.	1g	.
!	!	!	!	!LO:TX:t=P:problem=kreska pseudotaktowa	!	!	!
.	.	.	.	2c/	-le-	.	.
*	*	*Xlig	*	*	*	*	*
=12	=12	=12-	=12-	=12	=12	=12-	=12-
2r	.	1F	.	1c	-lu-	1.f	-lu-
*	*ij	*	*	*	*	*	*
2F\	Al-	.	.	.	.	.	.
2BB-X/	-le-	1D	.	2B-X/	-ia	.	.
!LO:TX:t=P:problem=kreska pseudotaktowa	!	!	!	!LO:TX:t=P:problem=kreska pseudotaktowa	!	!	!
2D/	-lu-	.	.	2A/	.	1d/	-ia
=13	=13	=13-	=13-	=13	=13	=13-	=13-
*	*	*	*	*	*ij	*	*
1AA	-ia	1E	.	1A	Al-	.	.
*	*	*	*	*	*	*	*Xij
*	*	*	*	*	*	*	*ij
!	!	!	!	!	!	!LO:TX:t=P:problem=kreska pseudotaktowa	!
.	.	.	.	.	.	2c#X/	Al-
*	*Xij	*	*	*	*	*	*
1D	.	1F	.	1A	-le-	2d/	-le-
.	.	.	.	.	.	1f\	-lu-
=14-	=14-	=14-	=14-	=14-	=14-	=14-	=14-
*lig	*	*	*	*	*	*	*
*	*	*custos:A	*	*	*	*	*
!	!	!	!	!LO:TX:t=P:problem=kreska pseudotaktowa	!	!	!
1C	.	1G	.	0c	-lu-	.	.
!	!	!	!	!	!	!LO:TX:t=P:problem=kreska pseudotaktowa	!
.	.	.	.	.	.	2e/	.
!	!	!LO:LB:g=original	!	!	!	!	!
*	*	*lig	*	*	*	*	*
!LO:TX:t=P:problem=kreska pseudotaktowa	!	!	!	!	!	!	!
1FF	.	1A	.	.	.	1f	.
*Xlig	*	*	*	*	*	*	*
=15	=15	=15-	=15-	=15	=15	=15-	=15-
*lig	*	*	*	*	*	*	*
1GG	.	1G	.	1B	-ia	2d/	.
.	.	.	.	.	.	1g	.
*	*	*	*	*	*Xij	*	*
*	*	*Xlig	*	*	*	*	*
*	*	*lig	*	*	*	*	*
1D	.	1A	.	1d	.	.	.
!	!	!	!	!	!	!LO:TX:t=P:problem=kreska pseudotaktowa	!
!	!	!	!	!	!	!LO:TX:t=P:problem=♯above	!
.	.	.	.	.	.	2f#Xi\	.
*Xlig	*	*	*	*	*	*	*
=16-	=16-	=16-	=16-	=16-	=16-	=16	=16
*	*ij	*	*	*	*	*	*
2GG/	Al-	1G	.	2.d\	.	2g\	-ia
*	*	*	*	*	*	*	*Xij
!LO:TX:t=P:problem=kreska pseudotaktowa	!	!	!	!	!	!	!
2G\	-le-	.	.	.	.	2.d/	Al-
!	!	!	!	!LO:TX:t=P:problem=kreska pseudotaktowa	!	!	!
.	.	.	.	4e\	.	.	.
*	*	*Xlig	*	*	*	*	*
*	*	*	*	*	*ij	*	*
2.D/	-lu-	1F	.	2.f\	Al-	.	.
.	.	.	.	.	.	4e/	.
.	.	.	.	.	.	2.fny\	.
4E\	.	.	.	8e\L	.	.	.
!	!	!	!	!LO:TX:t=P:problem=kreska pseudotaktowa	!	!	!
.	.	.	.	8d\J	.	.	.
=17-	=17-	=17-	=17-	=17	=17	=17-	=17-
2.F\	.	1A	.	4c/	.	.	.
.	.	.	.	4B/	.	8e/L	.
.	.	.	.	.	.	8d/J	.
.	.	.	.	4A/	.	4cny/	.
!	!	!	!	!	!	!LO:TX:t=P:problem=kreska pseudotaktowa	!
8E\L	.	.	.	8G/L	.	4d/	.
!LO:TX:t=P:problem=kreska pseudotaktowa	!	!	!	!LO:TX:t=P:problem=kreska pseudotaktowa	!	!	!
8D\J	.	.	.	8F/J	.	.	.
*	*	*lig	*	*	*	*	*
4C/	.	1c	.	2G/	-le-	2e/	-le-
4BB/	.	.	.	.	.	.	.
!	!	!	!	!LO:TX:t=P:problem=kreska pseudotaktowa	!	!LO:TX:t=P:problem=kreska pseudotaktowa	!
4AA/	.	.	.	2A/	.	2c/	-lu-
4GG/	.	.	.	.	.	.	.
=18-	=18-	=18-	=18-	=18	=18	=18	=18
*lig	*	*	*	*	*	*	*
1FF	.	1A	.	2c/	.	1f	-ia
.	.	.	.	2A/	.	.	.
*	*	*Xlig	*	*	*	*	*
*	*	*	*	*	*	*	*ij
!	!	!LO:TX:t=P:problem=krzyżyk w funkcji kasownika	!	!	!	!	!
!LO:TX:t=P:problem=kreska pseudotaktowa	!	!	!	!	!	!	!
!	!	!LO:TX:t=P:problem=♯above	!	!	!	!	!
!	!	!LO:SIC:v:s=1Bni	!	!	!	!	!
1GG	.	1B#i	-le-	2G/	.	2d/	Al-
!	!	!	!	!LO:TX:t=P:problem=kreska pseudotaktowa	!	!	!
.	.	.	.	2d\	.	1g\	-le-
*Xlig	*	*	*	*	*	*	*
=19	=19	=19-	=19-	=19	=19	=19-	=19-
1D	.	1A	-lu-	1d	-lu-	.	.
!	!	!	!	!	!	!LO:TX:t=P:problem=♯above	!
.	.	.	.	.	.	2f#Xi\	-lu-
!	!	!	!	!LO:TX:t=P:problem=kreska taktowa [pseudotaktowa] podwójna	!	!LO:TX:t=P:problem=kreska taktowa [pseudotaktowa] podwójna	!
!LO:TX:t=P:problem=kreska taktowa [pseudotaktowa] podwójna	!	!LO:TX:t=P:problem=kreska taktowa [pseudotaktowa] podwójna	!	!	!	!	!
!LO:SIC:v:s=1GG	!	!	!	!	!	!	!
!LO:N:vis=0	!	!LO:N:vis=0	!	!LO:N:vis=0	!	!LO:N:vis=0	!
1AA;>	-ia	1G;	-ia	1d;>	-ia	1g;<	-ia
*	*Xij	*	*	*	*Xij	*	*Xij
!	!	!	!	!	!	!LO:PB:g=original	!
=20||	=20||	=20||	=20||	=20||	=20||	=20||	=20||
*M2/1	*	*	*	*M2/1	*	*M2/1	*
*met(C|)	*	*	*	*met(C|)	*	*met(C|)	*
!	!	!	!	!LO:TX:t=P:problem=w źródle pod metrum inicjał A	!	!LO:TX:t=P:problem=w źródle pod metrum inicjał A	!
!LO:TX:t=P:problem=w źródle przed metrum inicjał A	!	!LO:TX:t=P:problem=w źródle przed nutą inicjał A	!	!	!	!	!
1GG	A-	1G	A-	1B	A-	1d	A-
*	*	*lig	*	*	*	*	*
!LO:TX:t=P:problem=kreska pseudotaktowa	!	!	!	!	!	!LO:TX:t=P:problem=kreska pseudotaktowa	!
!	!	!	!	!	!	!LO:TX:t=P:problem=♯above	!
!LO:SIC:l:v:s=-ve	!	!LO:SIC:l:v:s=-ve	!	!LO:SIC:l:v:s=-ve	!	!LO:SIC:l:v:s=-ve	!
1AA	-ue	1E	-ue	1.A	-ue	1c#Xi	-ue
=21	=21	=21-	=21-	=21-	=21-	=21	=21
1D	Ma-	1F	.	.	.	1d	Ma-
!	!	!	!	!LO:TX:t=P:problem=kreska pseudotaktowa	!	!	!
.	.	.	.	2A/	Ma-	.	.
*	*	*Xlig	*	*	*	*	*
1.C	.	1G	.	1.c	-ri-	2e/	-ri-
.	.	.	.	.	.	4c/	.
!	!	!	!	!	!	!LO:TX:t=P:problem=kreska pseudotaktowa	!
.	.	.	.	.	.	4d/	.
=22-	=22-	=22-	=22-	=22-	=22-	=22	=22
.	.	1G	Ma-	.	.	4e/	.
.	.	.	.	.	.	4f/	.
*	*	*	*	*custos:c	*	*	*
!LO:TX:t=P:problem=kreska pseudotaktowa	!	!	!	!LO:TX:t=P:problem=kreska pseudotaktowa	!	!	!
2BB/	.	.	.	2d\	.	1g	.
*custos:GG	*	*	*	*	*	*	*
!	!	!	!	!LO:LB:g=original	!	!	!
1AA	.	1A	-ri-	2.c/	.	.	.
!	!	!	!	!	!	!LO:TX:t=P:problem=♯above	!
!	!	!	!	!	!	!LO:TX:t=P:problem=kreska pseudotaktowa	!
.	.	.	.	.	.	2f#Xi\	.
.	.	.	.	4d\	.	.	.
!LO:LB:g=original	!	!	!	!	!	!	!
=23-	=23-	=23-	=23-	=23-	=23-	=23	=23
*lig	*	*lig	*	*	*	*lig	*
1GG	-ri-	1B	.	4e\	.	1g	.
.	.	.	.	4f\	.	.	.
.	.	.	.	1g	.	.	.
1D	.	1A	.	.	.	1a	.
!	!	!	!	!LO:TX:t=P:problem=kreska pseudotaktowa	!	!	!
!	!	!	!	!LO:TX:t=P:♯below:problem	!	!	!
.	.	.	.	2f#Xi\	.	.	.
*Xlig	*	*Xlig	*	*	*	*Xlig	*
=24-	=24-	=24-	=24-	=24	=24	=24-	=24-
!LO:TX:t=P:problem=kreska pseudotaktowa	!	!	!	!	!	!LO:TX:t=P:problem=kreska pseudotaktowa	!
1GG	-a	1B	.	2g\	-a,	0g	-a
.	.	.	.	2d\	gra-	.	.
*	*	*lig	*	*	*	*	*
0r	.	1c	.	2e\	.	.	.
!	!	!	!	!LO:TX:t=P:problem=kreska pseudotaktowa	!	!	!
.	.	.	.	2e\	-ti-	.	.
=25-	=25-	=25-	=25-	=25	=25	=25	=25
!	!	!	!	!LO:TX:t=P:global:problem=kreska oddechu na różnych liniach [rozdzielacz słów / znak oddechu]	!	!	!
.	.	1B	.	1d,<	-a	1g	gra-
*	*	*Xlig	*	*	*	*	*
*	*	*lig	*	*	*	*	*
!	!	!	!	!LO:TX:t=P:♯below:problem	!	!	!
2r	.	1A	.	2c#Xi\	ple-	2a\	-ti-
!LO:TX:t=P:problem=kreska pseudotaktowa	!	!	!	!	!	!LO:TX:t=P:problem=kreska pseudotaktowa	!
2D/	gra-	.	.	1d\	.	2f#X\	-a
=26	=26	=26-	=26-	=26-	=26-	=26	=26
2E\	-ti-	1G	.	.	.	1.g	ple-
!LO:TX:t=P:problem=kreska pseudotaktowa	!	!	!	!LO:TX:t=P:problem=kreska pseudotaktowa	!	!	!
!	!	!	!	!LO:TX:t=P:♯below:problem	!	!	!
2E\	-a	.	.	2c#Xi\	.	.	.
*	*	*Xlig	*	*	*	*	*
1D	ple-	1A	.	0d	-na	.	.
!	!	!	!	!	!	!LO:TX:t=P:problem=♯above	!
.	.	.	.	.	.	2f#Xi\	.
=27-	=27-	=27-	=27-	=27-	=27-	=27-	=27-
!LO:TX:t=P:problem=kreska pseudotaktowa	!	!	!	!	!	!	!
1GG	-na	1G	-a	.	.	1g	.
*	*ij	*	*	*	*ij	*	*
!	!	!	!	!LO:TX:t=P:problem=kreska pseudotaktowa	!	!LO:TX:t=P:problem=kreska pseudotaktowa	!
1C	gra-	1G	gra-	1cny	gra-	1e	-na
=28-	=28-	=28-	=28-	=28	=28	=28	=28
*	*	*lig	*	*	*	*	*
*	*	*	*	*	*	*	*ij
2D/	-ti-	1F	.	1A	-ti-	2f\	gra-
!LO:TX:t=P:problem=kreska pseudotaktowa	!	!	!	!	!	!	!
2D/	-a	.	.	.	.	1d	-ti-
*lig	*	*	*	*	*	*	*
*	*	*custos:D	*	*	*	*	*
1AA	ple-	1E	.	2.A/	-a	.	.
!	!	!	!	!	!	!LO:TX:t=P:problem=♯above	!
.	.	.	.	.	.	2c#Xi/	-a
.	.	.	.	4G/	.	.	.
*	*	*Xlig	*	*	*	*	*
!	!	!LO:PB:g=original	!	!	!	!	!
=29-	=29-	=29-	=29-	=29-	=29-	=29-	=29-
!	!	!	!	!LO:TX:t=P:problem=kreska pseudotaktowa	!	!	!
1D	.	1D	.	1F	.	2d/	ple-
!	!	!	!	!	!	!LO:TX:t=P:problem=kreska pseudotaktowa	!
.	.	.	.	.	.	2A/	-na
*	*	*	*	*	*	*	*Xij
*Xlig	*	*	*	*	*	*	*
*lig	*	*lig	*	*lig	*	*	*
*	*	*	*	*	*	*	*ij
1C	.	1E	.	1G	ple-	1cny	gra-
=30-	=30-	=30-	=30-	=30-	=30-	=30-	=30-
!LO:TX:t=P:problem=kreska pseudotaktowa	!	!	!	!	!	!	!
1FF	.	1F	.	1A	.	1.c	-ti-
*Xlig	*	*Xlig	*	*Xlig	*	*	*
!	!	!	!	!LO:TX:t=P:problem=kreska pseudotaktowa	!	!	!
1C	.	1G	.	1c	-na	.	.
!	!	!	!	!	!	!LO:TX:t=P:problem=kreska pseudotaktowa	!
.	.	.	.	.	.	2e/	-a
*	*	*	*	*	*Xij	*	*
=31-	=31-	=31-	=31-	=31	=31	=31	=31
*	*	*	*	*	*ij	*	*
!LO:TX:t=P:problem=kreska pseudotaktowa	!	!	!	!	!	!	!
1FF	-na	1F	-ti-	1c	gra-	1f	ple-
*	*Xij	*	*	*	*	*	*
*	*	*	*	*	*	*custos:e	*
!	!	!	!	!	!	!LO:TX:t=P:problem=kreska pseudotaktowa	!
1C	gra-	1G	-a	1.c	-ti-	0e	.
=32-	=32-	=32-	=32-	=32-	=32-	=32-	=32-
*	*	*lig	*	*	*	*	*
1.AA	-ti-	1A	ple-	.	.	.	.
!	!	!	!	!LO:TX:t=P:problem=kreska pseudotaktowa	!	!	!
.	.	.	.	2c/	-a	.	.
!	!	!	!	!	!	!LO:LB:g=original	!
!	!	!	!	!	!	!LO:TX:t=P:problem=kreska pseudotaktowa	!
.	.	1c	.	1.A	ple-	0e	-na
!LO:TX:t=P:problem=kreska pseudotaktowa	!	!	!	!	!	!	!
2AA/	-a	.	.	.	.	.	.
*	*	*Xlig	*	*	*	*	*
*	*	*	*	*	*	*	*Xij
=33	=33	=33-	=33-	=33-	=33-	=33-	=33-
1E	ple-	1B	.	.	.	.	.
!	!	!	!	!LO:TX:t=P:problem=♯above	!	!	!
.	.	.	.	2G#Xi/	.	.	.
*	*	*lig	*	*	*	*	*
!LO:TX:t=P:problem=kreska pseudotaktowa	!	!	!	!LO:TX:t=P:problem=kreska pseudotaktowa	!	!	!
1AA	-na	1c	.	1A	-na	2r	.
.	.	.	.	.	.	2e\	gra-
*	*	*	*	*	*Xij	*	*
=34	=34	=34-	=34-	=34	=34	=34-	=34-
2r	.	1B	.	1r	.	2g\	-ti-
*	*ij	*	*	*	*	*	*
!	!	!	!	!	!	!LO:TX:t=P:problem=kreska pseudotaktowa	!
2E\	gra-	.	.	.	.	2g\	-a
*	*	*Xlig	*	*	*	*	*
2F\	-ti-	1A	.	2r	.	4a\	ple-
.	.	.	.	.	.	8A/L	.
.	.	.	.	.	.	8B/J	.
!LO:TX:t=P:problem=kreska pseudotaktowa	!	!	!	!LO:TX:t=P:problem=kreska pseudotaktowa	!	!	!
2F\	-a	.	.	2A/	gra-	8c/L	.
.	.	.	.	.	.	8d/	.
.	.	.	.	.	.	8e/	.
!	!	!	!	!	!	!LO:TX:t=P:problem=kreska pseudotaktowa	!
.	.	.	.	.	.	8f/J	.
=35	=35	=35-	=35-	=35	=35	=35	=35
*lig	*	*lig	*	*	*	*	*
1E	ple-	1G	.	2B/	-ti-	4g\	.
.	.	.	.	.	.	8G/L	.
.	.	.	.	.	.	8A/J	.
*	*	*	*	*custos:d	*	*	*
!	!	!	!	!LO:TX:t=P:problem=kreska pseudotaktowa	!	!	!
.	.	.	.	2G/	-a	8B/L	.
.	.	.	.	.	.	8c/	.
.	.	.	.	.	.	8d/	.
!	!	!	!	!	!	!LO:TX:t=P:problem=kreska pseudotaktowa	!
.	.	.	.	.	.	8e/J	.
!	!	!	!	!LO:LB:g=original	!	!	!
*	*	*	*	*lig	*	*	*
1D	.	1F	.	1d	ple-	2f\	.
.	.	.	.	.	.	1d/	.
*Xlig	*	*Xlig	*	*	*	*	*
=36-	=36-	=36-	=36-	=36-	=36-	=36-	=36-
*	*	*	*	*col	*	*	*
*custos:BB	*	*	*	*	*	*	*
!LO:TX:t=P:problem=kreska pseudotaktowa	!	!	!	!	!	!	!
1AA	.	1A	.	2.e\	.	.	.
!	!	!	!	!	!	!LO:TX:t=P:problem=kreska pseudotaktowa	!
!	!	!	!	!	!	!LO:TX:t=P:problem=♯above	!
.	.	.	.	.	.	2c#Xi/	.
*	*	*	*	*Xlig	*	*	*
!	!	!	!	!LO:TX:t=P:problem=kreska pseudotaktowa	!	!	!
.	.	.	.	4f\	.	.	.
*	*	*	*	*Xcol	*	*	*
!LO:LB:g=original	!	!	!	!	!	!	!
!	!	!	!	!	!	!LO:TX:t=P:global:problem=kreska oddechu na różnych liniach [rozdzielacz słów / znak oddechu]	!
!LO:TX:t=P:global:problem=kreska oddechu na różnych liniach [rozdzielacz słów / znak oddechu]	!	!LO:TX:t=P:global:problem=kreska oddechu na różnych liniach [rozdzielacz słów / znak oddechu]	!	!	!	!	!
2BB,</	-na	1G,<	-na	4g\	.	2d,</	-na
.	.	.	.	4f\	.	.	.
*	*Xij	*	*	*	*	*	*
2.C/	gra	.	.	4e\	.	2.e/	ple-
!	!	!	!	!LO:TX:t=P:problem=kreska pseudotaktowa	!	!	!
.	.	.	.	4d\	.	.	.
=37-	=37-	=37-	=37-	=37	=37	=37-	=37-
.	.	1G	Do-	4c/	.	.	.
4C/	ti-	.	.	8B/L	.	4f\	.
.	.	.	.	8A/J	.	.	.
!LO:TX:t=P:problem=kreska pseudotaktowa	!	!	!	!LO:TX:t=P:problem=kreska pseudotaktowa	!	!LO:TX:t=P:problem=kreska pseudotaktowa	!
2E\	-a	.	.	2G/	.	2g\	.
*	*	*	*	*lig	*	*	*
1D	ple-	1d	.	1A	-na	1f	.
=38-	=38-	=38-	=38-	=38-	=38-	=38-	=38-
*	*	*lig	*	*	*	*	*
!	!	!	!	!LO:TX:t=P:problem=kreska pseudotaktowa	!	!	!
2C/	-na	1e	.	1c	.	2g\	.
*	*ij	*	*	*	*	*	*
!LO:TX:t=P:problem=kreska pseudotaktowa	!	!	!	!	!	!LO:TX:t=P:problem=kreska pseudotaktowa	!
2E\	gra-	.	.	.	.	2g\	-na
*	*	*	*	*Xlig	*	*	*
*	*	*	*	*	*	*	*ij
2F\	-ti-	1c	.	2r	.	2a\	ple-
*	*	*	*	*	*ij	*	*
2F\	-a	.	.	2.A/	gra-	2a\	.
*	*	*Xlig	*	*	*	*	*
=39-	=39-	=39-	=39-	=39-	=39-	=39-	=39-
*lig	*	*	*	*	*	*	*
!	!	!	!	!	!	!LO:TX:t=P:problem=kreska pseudotaktowa	!
1D	ple-	1d	.	.	.	1f	.
.	.	.	.	4G/	.	.	.
.	.	.	.	4A/	.	.	.
!	!	!	!	!LO:TX:t=P:problem=kreska pseudotaktowa	!	!	!
.	.	.	.	4B/	.	.	.
*	*	*lig	*	*	*	*	*
1A	.	1c	.	2c/	-ti-	4e/	.
.	.	.	.	.	.	4d/	.
.	.	.	.	2A/	.	4e/	.
!	!	!	!	!	!	!LO:TX:t=P:problem=kreska pseudotaktowa	!
.	.	.	.	.	.	4f\	.
*Xlig	*	*	*	*	*	*	*
=40-	=40-	=40-	=40-	=40-	=40-	=40	=40
*lig	*	*	*	*	*	*	*
!	!	!	!	!LO:TX:t=P:problem=kreska pseudotaktowa	!	!	!
1G	.	1B	.	1d	-a	4g\	.
.	.	.	.	.	.	4d/	.
.	.	.	.	.	.	1g	.
*	*	*Xlig	*	*	*	*	*
1D	.	1A	.	1d	ple-	.	.
!	!	!	!	!	!	!LO:TX:t=P:problem=kreska pseudotaktowa	!
!	!	!	!	!	!	!LO:TX:t=P:problem=♯above	!
.	.	.	.	.	.	2f#Xi\	.
*Xlig	*	*	*	*	*	*	*
=41-	=41-	=41-	=41-	=41-	=41-	=41	=41
*	*	*lig	*	*	*	*	*
*	*	*	*	*	*	*custos:e	*
!LO:TX:t=P:problem=kreska pseudotaktowa	!	!	!	!	!	!LO:TX:t=P:problem=kreska pseudotaktowa	!
1GG	-na	1B	.	2d\	-na	1g	-na
*	*Xij	*	*	*	*Xij	*	*Xij
!	!	!	!	!LO:TX:t=P:problem=kreska pseudotaktowa	!	!	!
.	.	.	.	2g\	Do-	.	.
!	!	!	!	!	!	!LO:LB:g=original	!
2r	.	1c	.	2e\	-mi-	2r	.
!	!	!	!	!LO:TX:t=P:problem=kreska pseudotaktowa	!	!LO:TX:t=P:problem=kreska pseudotaktowa	!
2C/	Do-	.	.	2c/	-n(us)	2e/	Do-
*	*	*Xlig	*	*	*	*	*
=42-	=42-	=42-	=42-	=42	=42	=42-	=42-
2BB/	-mi-	1d	.	1.g	te-	2d/	-mi-
!LO:TX:t=P:problem=kreska pseudotaktowa	!	!	!	!	!	!	!
2GG/	-n(us)	.	.	.	.	2B/	-n(us)
1AA	te-	1c	-mi-	.	.	2c/	te-
!	!	!	!	!LO:TX:t=P:problem=kreska pseudotaktowa	!	!	!
!	!	!	!	!LO:TX:t=P:♯below:problem	!	!	!
.	.	.	.	2f#Xi\	.	2A/	.
=43-	=43-	=43-	=43-	=43	=43	=43-	=43-
!	!	!	!	!	!	!LO:TX:t=P:problem=kreska pseudotaktowa	!
2GG,</	-c(um)	1d	-n(us)	2g\	.	1B	-c(um)
*	*ij	*	*	*	*	*	*
!LO:TX:t=P:problem=kreska pseudotaktowa	!	!	!	!LO:TX:t=P:problem=kreska pseudotaktowa	!	!	!
2G\	Do-	.	.	2d\	-c(um)	.	.
*	*	*lig	*	*	*	*	*
*	*	*	*	*	*ij	*	*
2F\	-mi-	1d	te-	2f\	Do-	2r	.
*	*	*	*	*	*	*	*ij
!	!	!	!	!LO:TX:t=P:problem=kreska pseudotaktowa	!	!	!
2D/	-n(us)	.	.	2f\	-mi-	1A/	Do-
=44-	=44-	=44-	=44-	=44	=44	=44-	=44-
*	*	*	*	*lig	*	*	*
*	*	*custos:d	*	*	*	*	*
1A	te-	1c	.	1e	-n(us)	.	.
!	!	!	!	!	!	!LO:TX:t=P:problem=kreska pseudotaktowa	!
.	.	.	.	.	.	2a\	.
*	*	*Xlig	*	*	*	*	*
!	!	!LO:LB:g=original	!	!	!	!	!
*	*	*lig	*	*	*	*	*
!LO:TX:t=P:problem=kreska pseudotaktowa	!	!	!	!	!	!	!
!	!	!	!	!LO:TX:t=P:♯below:problem	!	!	!
1D	-c(um)	1d	.	1f#Xi	te-	1a	-mi-
*	*Xij	*	*	*	*	*	*
*	*	*	*	*Xlig	*	*	*
=45	=45	=45-	=45-	=45-	=45-	=45-	=45-
*	*	*	*	*	*	*lig	*
2r	.	1c	.	2g\	-c(um)	1e	-n(us)
*	*	*	*	*	*Xij	*	*
*	*ij	*	*	*	*ij	*	*
!	!	!	!	!LO:TX:t=P:problem=kreska pseudotaktowa	!	!	!
2A\	Do-	.	.	2c/	Do-	.	.
*	*	*Xlig	*	*	*	*	*
2G\	-mi-	1B	.	2d\	-mi-	1g	.
!LO:TX:t=P:problem=kreska pseudotaktowa	!	!	!	!	!	!	!
2E\	-n(us)	.	.	2e\	-n(us)	.	.
*	*	*	*	*	*	*Xlig	*
=46	=46	=46-	=46-	=46-	=46-	=46-	=46-
*lig	*	*lig	*	*	*	*	*
*	*	*	*	*custos:c	*	*	*
!	!	!	!	!LO:TX:t=P:problem=kreska pseudotaktowa	!	!	!
1F	te-	1A	.	0c	te-	1.f	te-
1C	.	1G	.	.	.	.	.
!	!	!	!	!	!	!LO:TX:t=P:problem=kreska pseudotaktowa	!
.	.	.	.	.	.	2e/	.
*Xlig	*	*Xlig	*	*	*	*	*
!	!	!	!	!LO:LB:g=original	!	!	!
=47-	=47-	=47-	=47-	=47	=47	=47	=47
*	*	*lig	*	*	*	*	*
*custos:C	*	*	*	*	*	*	*
!LO:TX:t=P:problem=kreska pseudotaktowa	!	!	!	!	!	!	!
1FF,<	-c(um)	1F	.	1c	-c(um)	1f,<	-c(um)
*	*Xij	*	*	*	*Xij	*	*Xij
!LO:LB:g=original	!	!	!	!	!	!	!
1.C	be-	1G	.	1.c	be-	1.e	Be-
*	*	*Xlig	*	*	*	*	*
=48-	=48-	=48-	=48-	=48-	=48-	=48-	=48-
.	.	1G,<	-cum	.	.	.	.
!LO:TX:t=P:problem=kreska pseudotaktowa	!	!	!	!LO:TX:t=P:problem=kreska pseudotaktowa	!	!LO:TX:t=P:problem=kreska pseudotaktowa	!
2BB/	-ne-	.	.	2d\	-ne-	2d/	-ne-
1C	-di-	1G	be-	1e	-di-	1c	-di-
=49-	=49-	=49-	=49-	=49-	=49-	=49-	=49-
!	!	!	!	!LO:TX:t=P:problem=kreska pseudotaktowa	!	!LO:TX:t=P:problem=kreska pseudotaktowa	!
1GG	-cta	1G	-ne-	1B	-cta	1d	-cta
!LO:TX:t=P:problem=kreska pseudotaktowa	!	!	!	!	!	!	!
1C	tu	1G	-di-	1.c	tu	2e,</	tu
!	!	!	!	!	!	!LO:TX:t=P:problem=kreska pseudotaktowa	!
.	.	.	.	.	.	2e/	in
=50	=50	=50-	=50-	=50-	=50-	=50	=50
*	*	*lig	*	*	*	*	*
2r	.	1A	.	.	.	2e/	mu-
!	!	!	!	!LO:TX:t=P:problem=kreska pseudotaktowa	!	!	!
!	!	!	!	!LO:TX:t=P:problem=krzyżyk w funkcji kasownika	!	!	!
!	!	!	!	!LO:TX:t=P:♯below:problem	!	!	!
!	!	!	!	!LO:SIC:v:s=2cni	!	!	!
2AA/	in	.	.	2c#i/	in	2e/	-li-
2AA/	mu-	1E	.	2cny/	mu-	2.a\	-e-
!LO:TX:t=P:problem=kreska pseudotaktowa	!	!	!	!	!	!	!
2AA/	-li-	.	.	2c/	-li-	.	.
.	.	.	.	.	.	4a\	-ri-
*	*	*Xlig	*	*	*	*	*
=51	=51	=51-	=51-	=51-	=51-	=51-	=51-
!	!	!	!	!LO:TX:t=P:problem=kreska pseudotaktowa	!	!LO:TX:t=P:problem=kreska pseudotaktowa	!
2.D/	-e-	1F	.	1d	-e-	1a	-bus
4D/	-ri-	.	.	.	.	.	.
*	*	*lig	*	*	*	*	*
!LO:TX:t=P:problem=kreska pseudotaktowa	!	!	!	!	!	!	!
1C	-bus	1G	.	2e\	.	2r	.
!	!	!	!	!	!	!LO:TX:t=P:problem=kreska pseudotaktowa	!
.	.	.	.	1g\	.	2e/	in
=52	=52	=52-	=52-	=52-	=52-	=52	=52
*	*	*	*	*	*	*	*ij
1r	.	1D	.	.	.	1a	mu-
!	!	!	!	!LO:TX:t=P:problem=♯above	!	!	!
.	.	.	.	2f#Xi\	-ri-	.	.
*	*	*Xlig	*	*	*	*	*
*	*	*lig	*	*	*	*	*
*	*ij	*	*	*	*	*	*
!	!	!	!	!LO:TX:t=P:problem=kreska pseudotaktowa	!	!	!
1GG	be-	1G	.	1g	-bus	2g\	-li-
.	.	.	.	.	.	2b-X\	-e-
=53-	=53-	=53-	=53-	=53	=53	=53-	=53-
!LO:TX:t=P:problem=kreska pseudotaktowa	!	!	!	!	!	!	!
1D	-ne-	1F	.	2r	.	1.a	.
.	.	.	.	4.d\	be-	.	.
!	!	!	!	!LO:TX:t=P:problem=kreska pseudotaktowa	!	!	!
.	.	.	.	8d\	-ne-	.	.
*	*	*Xlig	*	*	*	*	*
2AA/	-di-	1E	.	2c/	-di-	.	.
!	!	!	!	!LO:TX:t=P:problem=kreska pseudotaktowa	!	!	!
2C/	-cta	.	.	2G/	cta	2e/	-ri-
=54-	=54-	=54-	=54-	=54	=54	=54-	=54-
*	*	*lig	*	*	*	*	*
*	*	*	*	*	*	*custos:d	*
!	!	!	!	!	!	!LO:TX:t=P:problem=kreska pseudotaktowa	!
1.BB-X	tu	1F	.	1.B-X	tu	1d	-bus
*	*	*	*	*	*	*	*Xij
!	!	!	!	!	!	!LO:LB:g=original	!
.	.	1D	.	.	.	2d/	.
!LO:TX:t=P:problem=kreska pseudotaktowa	!	!	!	!	!	!	!
2D/	in	.	.	2A/	in	1d/	.
*	*	*Xlig	*	*	*	*	*
=55	=55	=55-	=55-	=55-	=55-	=55-	=55-
*	*	*lig	*	*	*	*	*
!	!	!	!	!LO:TX:t=P:problem=kreska pseudotaktowa	!	!	!
1AA	mu-	1E	.	0A	mu-	.	.
!	!	!	!	!	!	!LO:TX:t=P:problem=kreska pseudotaktowa	!
!	!	!	!	!	!	!LO:TX:t=P:problem=♯above	!
.	.	.	.	.	.	2c#Xi/	.
1D	-li-	1F	.	.	.	2d/	.
.	.	.	.	.	.	1f\	.
*	*	*Xlig	*	*	*	*	*
=56-	=56-	=56-	=56-	=56	=56	=56-	=56-
*lig	*	*lig	*	*	*	*	*
1C	-e-	1G	.	1c	-li-	.	.
!	!	!	!	!	!	!LO:TX:t=P:problem=kreska pseudotaktowa	!
.	.	.	.	.	.	2e\	.
1.FF	.	1A	.	1.c	-e-	1f	.
*Xlig	*	*Xlig	*	*	*	*	*
=57-	=57-	=57-	=57-	=57-	=57-	=57-	=57-
*	*	*lig	*	*	*	*	*
.	.	1F	-cta-	.	.	2a\	in
!LO:TX:t=P:problem=kreska pseudotaktowa	!	!	!	!LO:TX:t=P:problem=kreska pseudotaktowa	!	!	!
2FF/	-ri-	.	.	2c/	-ri-	1f	mu-
1C	-bus	1G	.	1c	-bus	.	.
!	!	!	!	!	!	!LO:TX:t=P:problem=kreska pseudotaktowa	!
.	.	.	.	.	.	2e/	-li-
*	*Xij	*	*	*	*	*	*
*	*	*Xlig	*	*	*	*	*
=58-	=58-	=58-	=58-	=58-	=58-	=58	=58
*	*	*	*	*	*	*lig	*
!	!	!	!	!	!	!LO:TX:a:i:t=z	!
2r	.	1G	-tu	2B/	in	0d	-e-
!LO:TX:t=P:problem=kreska pseudotaktowa	!	!	!	!	!	!	!
2GG/	in	.	.	2.d\	mu-	.	.
2.G\	mu-	1G	in	.	.	.	.
.	.	.	.	4c/	.	.	.
.	.	.	.	4B/	.	.	.
*	*	*	*	*custos:G	*	*	*
!	!	!	!	!LO:TX:t=P:problem=kreska pseudotaktowa	!	!	!
4F\	.	.	.	4A/	.	.	.
!	!	!	!	!LO:LB:g=original	!	!	!
=59-	=59-	=59-	=59-	=59	=59	=59-	=59-
*	*	*lig	*	*	*	*	*
!	!	!	!	!	!	!LO:TX:a:i:t=z	!
4E\	.	1G	mu-	2G/	.	0e	.
4D/	.	.	.	.	.	.	.
4C/	.	.	.	1c	.	.	.
*custos:AA	*	*	*	*	*	*	*
!LO:TX:t=P:problem=kreska pseudotaktowa	!	!	!	!	!	!	!
4BB/	.	.	.	.	.	.	.
*	*	*custos:c	*	*	*	*	*
!LO:LB:g=original	!	!	!	!	!	!	!
1.AA	.	1A	.	.	.	.	.
!	!	!	!	!LO:TX:t=P:problem=kreska pseudotaktowa	!	!	!
.	.	.	.	2A/	-li-	.	.
*	*	*Xlig	*	*	*	*Xlig	*
!	!	!LO:LB:g=original	!	!	!	!	!
=60-	=60-	=60-	=60-	=60	=60	=60-	=60-
*	*	*lig	*	*	*	*	*
.	.	1c	.	1.A	-e-	0e	-ri-
!LO:TX:t=P:problem=kreska pseudotaktowa	!	!	!	!	!	!	!
2AA/	-li-	.	.	.	.	.	.
2.E\	-e-	1B	.	.	.	.	.
!	!	!	!	!LO:TX:t=P:problem=kreska pseudotaktowa	!	!	!
!	!	!	!	!LO:TX:t=P:problem=♯above	!	!	!
.	.	.	.	2G#Xi/	-ri-	.	.
4E\	-ri-	.	.	.	.	.	.
*	*	*Xlig	*	*	*	*	*
=61-	=61-	=61-	=61-	=61	=61	=61-	=61-
!LO:TX:t=P:problem=kreska pseudotaktowa	!	!	!	!	!	!	!
1AA	-bus	1A	-li-	2A/	-bus	1.e	-bus
*	*	*	*	*	*ij	*	*
.	.	.	.	2e\	in	.	.
2r	.	1c	-e-	2c/	mu-	.	.
*	*	*	*	*	*	*	*ij
!	!	!	!	!LO:TX:t=P:problem=kreska pseudotaktowa	!	!LO:TX:t=P:problem=kreska pseudotaktowa	!
2A\	in	.	.	2A/	-li-	2e/	in
=62-	=62-	=62-	=62-	=62	=62	=62	=62
*	*	*lig	*	*	*	*	*
2G\	mu-	1d	.	2B/	-e-	2g\	mu-
!LO:TX:t=P:problem=kreska pseudotaktowa	!	!	!	!	!	!	!
2D/	-li-	.	.	2A/	-ri-	2f\	-li-
!	!	!	!	!LO:TX:t=P:problem=kreska pseudotaktowa	!	!	!
1F	-e-	1c	.	1A	-bus	1f	-e-
*	*	*	*	*	*Xij	*	*
*	*	*Xlig	*	*	*	*	*
=63-	=63-	=63-	=63-	=63	=63	=63-	=63-
!	!	!	!	!	!	!LO:TX:t=P:problem=kreska pseudotaktowa	!
1G	.	1B	.	2r	.	1d	-ri-
*	*	*	*	*	*ij	*	*
.	.	.	.	2g\	in	.	.
*	*	*lig	*	*	*	*	*
1C	.	1c	.	2e\	mu-	2g\	-bus
*	*	*	*	*	*	*	*Xij
*	*	*	*	*	*	*	*ij
!	!	!	!	!LO:TX:t=P:problem=kreska pseudotaktowa	!	!	!
.	.	.	.	2e\	-li-	2a\	in
=64-	=64-	=64-	=64-	=64	=64	=64-	=64-
!LO:TX:t=P:problem=kreska pseudotaktowa	!	!	!	!LO:TX:t=P:problem=kreska pseudotaktowa	!	!	!
!	!	!	!	!	!	!LO:TX:t=P:problem=♯above	!
1D	.	1A	.	0.d	-e-	2f#Xi\	mu-
!	!	!	!	!	!	!LO:TX:t=P:problem=kreska pseudotaktowa	!
.	.	.	.	.	.	2d/	-li-
*	*	*Xlig	*	*	*	*	*
!	!	!LO:TX:t=P:problem=krzyżyk w funkcji kasownika	!	!	!	!	!
!	!	!LO:TX:t=P:problem=♯above	!	!	!	!	!
!	!	!LO:SIC:v:s=1Bni	!	!	!	!	!
2BB/	.	1B#i	.	.	.	1.g	-e-
2GG/	.	.	.	.	.	.	.
=65-	=65-	=65-	=65-	=65-	=65-	=65-	=65-
1.D	.	1A	.	.	.	.	.
!	!	!	!	!	!	!LO:TX:t=P:problem=♯above	!
.	.	.	.	.	.	4f#Xi\	.
.	.	.	.	.	.	4e\	.
!	!	!	!	!	!	!LO:TX:t=P:problem=♯above	!
.	.	1A	-ri-	1d	-ri-	2f#Xi\	.
!	!	!	!	!	!	!LO:TX:t=P:problem=kreska pseudotaktowa	!
2D/	-ri-	.	.	.	.	2f#\	-ri-
=66-	=66-	=66-	=66-	=66-	=66-	=66-	=66-
*	*	*	*	*	*	*custos:d	*
!LO:TX:a:t=P:problem=W źródle brak informacji o powtórce	!	!LO:TX:a:t=P:problem=W źródle brak informacji o powtórce	!	!LO:TX:a:t=P:problem=W źródle brak informacji o powtórce	!	!	!
!	!	!LO:TX:a:t=P:problem=w źródle brak kreski końcowej	!	!	!	!	!
!	!	!	!	!	!	!LO:TX:b:Bi:t=2dum	!
!	!	!	!	!	!	!LO:N:vis=1	!
0GG;>	-bus.	0G;>	-bus.	0B;>	-bus	0g;<	-bus
*	*	*	*	*	*Xij	*	*Xij
==	==	==	==	==	==	==	==
*-	*-	*-	*-	*-	*-	*-	*-
!!title: @{OTL};
!!!RDF**kern: > = above
!!!RDF**kern: < = below
!!!RDF**kern: l = terminal long
!!!RDF**kern: i = editorial accidental
!!!EED: Wojciech Jakubiak-Danek
!!!EST: 2021-03-09
!!!URL-scan: http://repozytorium.nifc.pl/skany/pl-kk-nut--i-7
!!!ONB-nifc: UWAGA: C (skan 0017, s.28-29), A (0103-0104, s.27-28), T(0179, s.22-23), B(0269-0270, s.29-30). Następny utwór: Alleluia virga Jesse floruit
!!!AIN: 1 alto 1 empty 1 tenor 1 vox
!!!ENC: Andrzej Borzym
!!!END: 2021-02-23
